X:640
T:Andro 1
G:Kazimodal
R:Andro
C:Traditionnel, arrangement Ronan Keryell http://kazimodal.trad.org
Q:C2=108
P:A5
M:4/4
S:Tonioù Breizh-Izel 1718 (Ardeven)
K:D
P:A
%\large
%%MIDI program 109
%%MIDI gchord fcfcfcfc
%%MIDI chordprog 105
%%MIDI bassprog 32
%%MIDI bassvol 127
|: "D"A(A/2B/2) "F#m"{AB}A>F "Bm"BB "A"A/2A/2A |\
"D"A>B "F#m"{AB}AF "Bm"{F}B/2B/2B "A"A2 :|
|: "A"(A/2G/2)(E/2F/2) "Bm"(DE/2)F/2 "Em"GE "D"FD |\
"Bm"{Bc}Bc/2d/2 "A"c>A "G"BG "D"A2 |
"Em"(A/2G/2)(E/2F/2) "F#m"A(E/2F/2) "G"(G/2E/2)F "D"D2 |\
"Bm"{Bc}Bc/2d/2 "A"cA "G"B"A"c "D"d2 :|
\bigskip


